icon-svg/tuya.svg

<svg xmlns="http://www.w3.org/2000/svg" fill="#44739e" viewBox="0 0 24 24"><path d="M12 2.042A9.958 9.958 0 1 0 21.958 12 9.958 9.958 0 0 0 12 2.042m2.6 14.305a1.65 1.65 0 0 1-.623.058 6.67 6.67 0 0 1-1.182-.05 3.157 3.157 0 0 1-1.995-1.236 3.286 3.286 0 0 1-.629-2.042c.02-.6.045-1.2.065-1.8h-.883a.81.81 0 0 1-.763-.717.881.881 0 0 1 .81-.96h.893c.014-.382.022-.765.041-1.146a.881.881 0 0 1 .937-.792.811.811 0 0 1 .746.8c-.008.38-.025.761-.037 1.142h2.39a.811.811 0 0 1 .779.718.882.882 0 0 1-.832.966h-2.4c-.024.584-.044 1.167-.066 1.751a1.64 1.64 0 0 0 .427 1.2 1.554 1.554 0 0 0 1.1.491c.341.006.682 0 1.023 0a.812.812 0 0 1 .743.714.881.881 0 0 1-.544.903m1.473-6.4a.331.331 0 0 1-.273-.059.342.342 0 0 1-.143-.219.787.787 0 0 0-.081-.5.633.633 0 0 0-.54-.32H15a.69.69 0 0 0-.232.052.376.376 0 0 1-.216.034.334.334 0 0 1-.247-.18.326.326 0 0 1-.014-.3c.077-.182.3-.24.524-.283a1.334 1.334 0 0 1 1.078.308 1.349 1.349 0 0 1 .453 1.169.35.35 0 0 1-.276.297Zm1.839-.323a.344.344 0 0 1-.412.276.348.348 0 0 1-.276-.382 2.1 2.1 0 0 0-2.084-2.372 2.02 2.02 0 0 0-.587.086 1.5 1.5 0 0 0-.2.073.454.454 0 0 1-.373.051.351.351 0 0 1-.089-.595 2.51 2.51 0 0 1 .879-.281 2.789 2.789 0 0 1 3.139 3.145Z"/></svg>

<?xml version="1.0" encoding="UTF-8"?>
<svg width="24px" fill="#44739e" height="24px" viewBox="0 0 24 24" version="1.1" xmlns="http://www.w3.org/2000/svg" xmlns:xlink="http://www.w3.org/1999/xlink">
            <path d="M 12,2.042 A 9.958,9.958 0 1 0 21.958,12 9.958,9.958 0 0 0 12,2.042 Z m 2.6,14.305 a 1.653,1.653 0 0 1 -0.623,0.058 6.668,6.668 0 0 1 -1.182,-0.05 3.157,3.157 0 0 1 -1.995,-1.236 3.286,3.286 0 0 1 -0.629,-2.042 c 0.02,-0.6 0.045,-1.2 0.065,-1.8 -0.295,0 -0.589,0 -0.883,0 A 0.81,0.81 0 0 1 8.59,10.56 0.881,0.881 0 0 1 9.4,9.6 c 0.3,0 0.6,0 0.893,0 0.014,-0.382 0.022,-0.765 0.041,-1.146 a 0.881,0.881 0 0 1 0.937,-0.792 0.811,0.811 0 0 1 0.746,0.8 c -0.008,0.38 -0.025,0.761 -0.037,1.142 h 2.39 a 0.811,0.811 0 0 1 0.779,0.718 0.882,0.882 0 0 1 -0.832,0.966 c -0.8,0 -1.6,0 -2.4,0 -0.024,0.584 -0.044,1.167 -0.066,1.751 a 1.641,1.641 0 0 0 0.427,1.2 1.554,1.554 0 0 0 1.1,0.491 c 0.341,0.006 0.682,0 1.023,0 a 0.812,0.812 0 0 1 0.743,0.714 0.881,0.881 0 0 1 -0.544,0.903 z m 1.473,-6.4 A 0.331,0.331 0 0 1 15.8,9.888 0.342,0.342 0 0 1 15.657,9.669 0.787,0.787 0 0 0 15.576,9.169 0.633,0.633 0 0 0 15.036,8.849 H 15 a 0.687,0.687 0 0 0 -0.232,0.052 0.376,0.376 0 0 1 -0.216,0.034 0.334,0.334 0 0 1 -0.247,-0.18 0.326,0.326 0 0 1 -0.014,-0.3 c 0.077,-0.182 0.3,-0.24 0.524,-0.283 A 1.334,1.334 0 0 1 15.893,8.48 1.349,1.349 0 0 1 16.346,9.649 0.35,0.35 0 0 1 16.07,9.946 Z M 17.912,9.624 A 0.344,0.344 0 0 1 17.5,9.9 0.348,0.348 0 0 1 17.224,9.518 2.1,2.1 0 0 0 15.14,7.146 2.02,2.02 0 0 0 14.553,7.232 1.466,1.466 0 0 0 14.353,7.305 0.454,0.454 0 0 1 13.98,7.356 0.351,0.351 0 0 1 13.891,6.761 2.512,2.512 0 0 1 14.77,6.48 2.789,2.789 0 0 1 17.909,9.625 Z"/>

</svg>
